src/assets/img/unsorted/emotes/79.svg

<svg xmlns:xlink="http://www.w3.org/1999/xlink" height="100.8" width="132.65" xmlns="http://www.w3.org/2000/svg"><g transform="translate(77.75 73.55)"><use height="28.5" transform="translate(-12.5 -12.75)" width="25.5" xlink:href="#a"/><use height="30" transform="matrix(.5 0 0 .5 9.1 -19.55)" width="10.05" xlink:href="#b"/><use height="30" transform="matrix(.5 0 0 .5 -14.45 -17.85)" width="10.05" xlink:href="#b"/><use height="30" transform="matrix(.375 0 0 .375 -13.238 -4.688)" width="10.05" xlink:href="#b"/><use height="30" transform="matrix(.375 0 0 .375 1.462 -20.688)" width="10.05" xlink:href="#b"/><use height="30" transform="matrix(.375 0 0 .375 11.113 -3.188)" width="10.05" xlink:href="#b"/><use height="10.85" transform="translate(-8.75 -7.7)" width="17.55" xlink:href="#c"/><use height="30" transform="matrix(.375 0 0 .375 5.813 -9.488)" width="10.05" xlink:href="#b"/><use height="9.95" transform="matrix(.7622 0 0 .9477 -9.56 4.129)" width="25.5" xlink:href="#d"/></g><defs><use height="17.95" width="10.05" xlink:href="#e" id="b"/><use height="17.95" width="10.05" xlink:href="#f" id="e"/><use height="9.95" width="25.5" xlink:href="#g" id="d"/><g id="f"><path d="m4.7.55-.05-.3.05.3.1 1.7L4.95 6l.1 3.9q0 1.95-.95 3.5-.5.8-1.45.75-1.9-.1-2.55-2.25H.05v-.15q.1-1.35.45-2.3Q.95 8 4.55.05l.1.15v.05l.1.25-.05.05M.1 11.9l-.05-.15.05.15" fill="#fff" fill-rule="evenodd" transform="translate(.5 .45)"/><path d="M4.7.55 4.75.5 8.6 9.45q.5 1.4.45 3.65-.05 2.2-1.2 3.05-1.15.85-3.3.85-2.2 0-3.35-.85T0 13.1l.05-1.2H.1q.65 2.15 2.55 2.25.95.05 1.45-.75.95-1.55.95-3.5L4.95 6 4.8 2.25 4.7.55" fill="#b8d2f1" fill-rule="evenodd" transform="translate(.5 .45)"/><path d="m4.65.2-.1-.15Q.95 8 .5 9.45q-.35.95-.45 2.3v.15L0 13.1q.05 2.2 1.2 3.05 1.15.85 3.35.85 2.15 0 3.3-.85t1.2-3.05q.05-2.25-.45-3.65L4.75.5" fill="none" stroke="#6f88b0" stroke-linecap="round" stroke-linejoin="round" transform="translate(.5 .45)"/><path d="m4.65.25.05.3M4.75.5l-.1-.25V.2M.05 11.75l.05.15" fill="none" stroke="#6f88b0" stroke-linecap="round" stroke-linejoin="round" transform="translate(.5 .45)"/></g><g id="c"><path d="M8.3-2.3 8.05-.45l-.9 1.6q-1 1.2-2.3 1.4l-.5.05-1-.15q-1.05-.35-1.8-1.3Q.5-.2.4-1.95v-.35Q.35-4.35 1.55-5.75q1.1-1.45 2.8-1.45 1.65 0 2.8 1.45Q8.3-4.35 8.3-2.3m-16.55.05q-.05-2 1.15-3.45Q-6-7.15-4.3-7.15q1.65 0 2.8 1.45t1.15 3.45v.3Q-.45-.15-1.5 1.2l-1.3 1.1-1.5.35-1.1-.2q-.95-.3-1.7-1.25Q-7.7.5-8-.4q-.3-.85-.25-1.85" fill="#fff" fill-rule="evenodd" transform="translate(8.75 7.7)"/><path d="M8.3-2.3 8.05-.45l-.9 1.6q-1 1.2-2.3 1.4l-.5.05-1-.15q-1.05-.35-1.8-1.3Q.5-.2.4-1.95v-.35Q.35-4.35 1.55-5.75q1.1-1.45 2.8-1.45 1.65 0 2.8 1.45Q8.3-4.35 8.3-2.3m-16.55.05q-.05-2 1.15-3.45Q-6-7.15-4.3-7.15q1.65 0 2.8 1.45t1.15 3.45v.3Q-.45-.15-1.5 1.2l-1.3 1.1-1.5.35-1.1-.2q-.95-.3-1.7-1.25Q-7.7.5-8-.4q-.3-.85-.25-1.85" fill="none" stroke="#666" stroke-linecap="round" stroke-linejoin="round" transform="translate(8.75 7.7)"/><path d="m-4.3-2.5.2-.5.45-.15.45.15.2.5-.2.45-.45.2q-.25 0-.45-.2l-.2-.45m7.25 0 .2-.5.45-.15.45.15.2.5-.2.45-.45.2q-.25 0-.45-.2l-.2-.45" fill-rule="evenodd" transform="translate(8.75 7.7)"/></g><g id="g"><path d="M8.05.2q.25 1.25-.95 2.85h-1L5.7 3v-.45l-.05-.5-.2-.55q-.2-.35-.7-.35-.55-.05-.8.35-.25.35-.35.85l-.05.55-10.25.65q-.65-.7-.95-2.75L5.2-.05 8.05.2" fill="#fff" fill-rule="evenodd" transform="translate(13.2 .55)"/><path d="M-6.6 6.85q5.85-2.7 12.85-.2L.3 8.9l-6.9-2.05" fill="#c00" fill-rule="evenodd" transform="translate(13.2 .55)"/><path d="M-7.65.8q.3 2.05.95 2.75L3.55 2.9l.05-.55q.1-.5.35-.85.25-.4.8-.35.5 0 .7.35l.2.55.05.5V3l.4.05h1q1.2-1.6.95-2.85l2.3.25q4.25 2.1-4.1 6.2-7-2.5-12.85.2-4.55-1.75-5.75-3.1-1.2-1.4 2-2.5l2.7-.45" fill-rule="evenodd" transform="translate(13.2 .55)"/><path d="M8.05.2 5.2-.05-7.65.8l-2.7.45q-3.2 1.1-2 2.5 1.2 1.35 5.75 3.1L.3 8.9l5.95-2.25q8.35-4.1 4.1-6.2L8.05.2Z" fill="none" stroke="#333" stroke-linecap="round" stroke-linejoin="round" transform="translate(13.2 .55)"/></g><radialGradient cx="0" cy="0" gradientTransform="matrix(.0288 0 0 .0247 .25 1.45)" gradientUnits="userSpaceOnUse" id="h" r="819.2" spreadMethod="pad"><stop offset="0" stop-color="#f33"/><stop offset=".537" stop-color="#f33" stop-opacity="0"/></radialGradient><path d="M9.25-8.6Q13-4.45 13 1.5q0 5.9-3.75 10.05t-9 4.2q-5.3-.05-9-4.2Q-12.5 7.4-12.5 1.5q0-5.95 3.75-10.1 3.7-4.15 9-4.15 5.25 0 9 4.15" fill="url(#h)" fill-rule="evenodd" transform="translate(12.5 12.75)" id="a"/></defs></svg>

<?xml version="1.0" encoding="UTF-8" standalone="no"?>
<svg xmlns:xlink="http://www.w3.org/1999/xlink" height="100.8px" width="132.65px" xmlns="http://www.w3.org/2000/svg">
  <g transform="matrix(1.0, 0.0, 0.0, 1.0, 77.75, 73.55)">
    <use height="28.5" transform="matrix(1.0, 0.0, 0.0, 1.0, -12.5, -12.75)" width="25.5" xlink:href="#shape0"/>
    <use height="30.0" transform="matrix(0.5, 0.0, 0.0, 0.5, 9.1, -19.55)" width="10.05" xlink:href="#sprite0"/>
    <use height="30.0" transform="matrix(0.5, 0.0, 0.0, 0.5, -14.45, -17.85)" width="10.05" xlink:href="#sprite0"/>
    <use height="30.0" transform="matrix(0.375, 0.0, 0.0, 0.375, -13.2375, -4.6875)" width="10.05" xlink:href="#sprite0"/>
    <use height="30.0" transform="matrix(0.375, 0.0, 0.0, 0.375, 1.4625, -20.6875)" width="10.05" xlink:href="#sprite0"/>
    <use height="30.0" transform="matrix(0.375, 0.0, 0.0, 0.375, 11.1125, -3.1875)" width="10.05" xlink:href="#sprite0"/>
    <use height="10.85" transform="matrix(1.0, 0.0, 0.0, 1.0, -8.75, -7.7)" width="17.55" xlink:href="#shape2"/>
    <use height="30.0" transform="matrix(0.375, 0.0, 0.0, 0.375, 5.8125, -9.4875)" width="10.05" xlink:href="#sprite0"/>
    <use height="9.95" transform="matrix(0.7622, 0.0, 0.0, 0.9477, -9.5605, 4.1288)" width="25.5" xlink:href="#sprite2"/>
  </g>
  <defs>
    <g id="shape0" transform="matrix(1.0, 0.0, 0.0, 1.0, 12.5, 12.75)">
      <path d="M9.25 -8.6 Q13.0 -4.45 13.0 1.5 13.0 7.4 9.25 11.55 5.5 15.7 0.25 15.75 -5.05 15.7 -8.75 11.55 -12.5 7.4 -12.5 1.5 -12.5 -4.45 -8.75 -8.6 -5.05 -12.75 0.25 -12.75 5.5 -12.75 9.25 -8.6" fill="url(#gradient0)" fill-rule="evenodd" stroke="none"/>
    </g>
    <radialGradient cx="0" cy="0" gradientTransform="matrix(0.0288, 0.0, 0.0, 0.0247, 0.25, 1.45)" gradientUnits="userSpaceOnUse" id="gradient0" r="819.2" spreadMethod="pad">
      <stop offset="0.0" stop-color="#ff3333"/>
      <stop offset="0.5372549019607843" stop-color="#ff3333" stop-opacity="0.0"/>
    </radialGradient>
    <g id="sprite0" transform="matrix(1.0, 0.0, 0.0, 1.0, 0.5, 12.5)">
      <use height="17.95" transform="matrix(1.0, 0.0, 0.0, 1.0, -0.5, -12.5)" width="10.05" xlink:href="#sprite1"/>
    </g>
    <g id="sprite1" transform="matrix(1.0, 0.0, 0.0, 1.0, 0.5, 0.45)">
      <use height="17.95" transform="matrix(1.0, 0.0, 0.0, 1.0, -0.5, -0.45)" width="10.05" xlink:href="#shape1"/>
    </g>
    <g id="shape1" transform="matrix(1.0, 0.0, 0.0, 1.0, 0.5, 0.45)">
      <path d="M4.7 0.55 L4.65 0.25 4.7 0.55 4.8 2.25 4.95 6.0 5.05 9.9 Q5.05 11.85 4.1 13.4 3.6 14.2 2.65 14.15 0.75 14.05 0.1 11.9 L0.05 11.9 0.05 11.75 Q0.15 10.4 0.5 9.45 0.95 8.0 4.55 0.05 L4.65 0.2 4.65 0.25 4.75 0.5 4.7 0.55 M0.1 11.9 L0.05 11.75 0.1 11.9" fill="#ffffff" fill-rule="evenodd" stroke="none"/>
      <path d="M4.7 0.55 L4.75 0.5 8.6 9.45 Q9.1 10.85 9.05 13.1 9.0 15.3 7.85 16.15 6.7 17.0 4.55 17.0 2.35 17.0 1.2 16.15 0.05 15.3 0.0 13.1 L0.05 11.9 0.1 11.9 Q0.75 14.05 2.65 14.15 3.6 14.2 4.1 13.4 5.05 11.85 5.05 9.9 L4.95 6.0 4.8 2.25 4.7 0.55" fill="#b8d2f1" fill-rule="evenodd" stroke="none"/>
      <path d="M4.65 0.2 L4.55 0.05 Q0.95 8.0 0.5 9.45 0.15 10.4 0.05 11.75 L0.05 11.9 0.0 13.1 Q0.05 15.3 1.2 16.15 2.35 17.0 4.55 17.0 6.7 17.0 7.85 16.15 9.0 15.3 9.05 13.1 9.1 10.85 8.6 9.45 L4.75 0.5" fill="none" stroke="#6f88b0" stroke-linecap="round" stroke-linejoin="round" stroke-width="1.0"/>
      <path d="M4.65 0.25 L4.7 0.55 M4.75 0.5 L4.65 0.25 4.65 0.2 M0.05 11.75 L0.1 11.9" fill="none" stroke="#6f88b0" stroke-linecap="round" stroke-linejoin="round" stroke-width="1.0"/>
    </g>
    <g id="shape2" transform="matrix(1.0, 0.0, 0.0, 1.0, 8.75, 7.7)">
      <path d="M8.3 -2.3 L8.05 -0.45 7.15 1.15 Q6.15 2.35 4.85 2.55 L4.35 2.6 3.35 2.45 Q2.3 2.1 1.55 1.15 0.5 -0.2 0.4 -1.95 L0.4 -2.3 Q0.35 -4.35 1.55 -5.75 2.65 -7.2 4.35 -7.2 6.0 -7.2 7.15 -5.75 8.3 -4.35 8.3 -2.3 M-8.25 -2.25 Q-8.3 -4.25 -7.1 -5.7 -6.0 -7.15 -4.3 -7.15 -2.65 -7.15 -1.5 -5.7 -0.35 -4.25 -0.35 -2.25 L-0.35 -1.95 Q-0.45 -0.15 -1.5 1.2 L-2.8 2.3 -4.3 2.65 -5.4 2.45 Q-6.35 2.15 -7.1 1.2 -7.7 0.5 -8.0 -0.4 -8.3 -1.25 -8.25 -2.25" fill="#ffffff" fill-rule="evenodd" stroke="none"/>
      <path d="M8.3 -2.3 L8.05 -0.45 7.15 1.15 Q6.15 2.35 4.85 2.55 L4.35 2.6 3.35 2.45 Q2.3 2.1 1.55 1.15 0.5 -0.2 0.4 -1.95 L0.4 -2.3 Q0.35 -4.35 1.55 -5.75 2.65 -7.2 4.35 -7.2 6.0 -7.2 7.15 -5.75 8.3 -4.35 8.3 -2.3 M-8.25 -2.25 Q-8.3 -4.25 -7.1 -5.7 -6.0 -7.15 -4.3 -7.15 -2.65 -7.15 -1.5 -5.7 -0.35 -4.25 -0.35 -2.25 L-0.35 -1.95 Q-0.45 -0.15 -1.5 1.2 L-2.8 2.3 -4.3 2.65 -5.4 2.45 Q-6.35 2.15 -7.1 1.2 -7.7 0.5 -8.0 -0.4 -8.3 -1.25 -8.25 -2.25" fill="none" stroke="#666666" stroke-linecap="round" stroke-linejoin="round" stroke-width="1.0"/>
      <path d="M-4.3 -2.5 L-4.1 -3.0 -3.65 -3.15 -3.2 -3.0 -3.0 -2.5 -3.2 -2.05 -3.65 -1.85 Q-3.9 -1.85 -4.1 -2.05 L-4.3 -2.5" fill="#000000" fill-rule="evenodd" stroke="none"/>
      <path d="M2.95 -2.5 L3.15 -3.0 3.6 -3.15 4.05 -3.0 4.25 -2.5 4.05 -2.05 3.6 -1.85 Q3.35 -1.85 3.15 -2.05 L2.95 -2.5" fill="#000000" fill-rule="evenodd" stroke="none"/>
    </g>
    <g id="sprite2" transform="matrix(1.0, 0.0, 0.0, 1.0, 13.2, 0.55)">
      <use height="9.95" transform="matrix(1.0, 0.0, 0.0, 1.0, -13.2, -0.55)" width="25.5" xlink:href="#shape3"/>
    </g>
    <g id="shape3" transform="matrix(1.0, 0.0, 0.0, 1.0, 13.2, 0.55)">
      <path d="M8.05 0.2 Q8.3 1.45 7.1 3.05 L6.1 3.05 5.7 3.0 5.7 2.85 5.7 2.55 5.65 2.05 5.45 1.5 Q5.25 1.15 4.75 1.15 4.2 1.1 3.95 1.5 3.7 1.85 3.6 2.35 L3.55 2.9 -6.7 3.55 Q-7.35 2.85 -7.65 0.8 L5.2 -0.05 8.05 0.2" fill="#ffffff" fill-rule="evenodd" stroke="none"/>
      <path d="M-6.6 6.85 Q-0.75 4.15 6.25 6.65 L0.3 8.9 -6.6 6.85" fill="#cc0000" fill-rule="evenodd" stroke="none"/>
      <path d="M-7.65 0.8 Q-7.35 2.85 -6.7 3.55 L3.55 2.9 3.6 2.35 Q3.7 1.85 3.95 1.5 4.2 1.1 4.75 1.15 5.25 1.15 5.45 1.5 L5.65 2.05 5.7 2.55 5.7 2.85 5.7 3.0 6.1 3.05 7.1 3.05 Q8.3 1.45 8.05 0.2 L10.35 0.45 Q14.6 2.55 6.25 6.65 -0.75 4.15 -6.6 6.85 -11.15 5.1 -12.35 3.75 -13.55 2.35 -10.35 1.25 L-7.65 0.8" fill="#000000" fill-rule="evenodd" stroke="none"/>
      <path d="M8.05 0.2 L5.2 -0.05 -7.65 0.8 -10.35 1.25 Q-13.55 2.35 -12.35 3.75 -11.15 5.1 -6.6 6.85 L0.3 8.9 6.25 6.65 Q14.6 2.55 10.35 0.45 L8.05 0.2 Z" fill="none" stroke="#333333" stroke-linecap="round" stroke-linejoin="round" stroke-width="1.0"/>
    </g>
  </defs>
</svg>
